X:730
T: Dicky Sherlock's
T: R\'il Dici Scarl\'og
S: B.Breathnach: "Ceol Rince na hEireann" II/200
Z: B.Black
N: a/k/a "Tipperary Fancy", "Ashplant", "Jimmy Kelly's"
L: 1/8
M: 4/4
R: reel
K: D
dB|Af (3FFF DFAF|DEFA B3d|eB (3BBB egfe|defd BcdB|
AF (3FFF DFAF|DEFA B2 Bd|egfg efdB|1 AFGE D2 :|2\
AFGE D3||
A|dcde f2 fg|a2 bb agfg|eB (3BBB gB (3BBB|efff ecdB|
Af (3FFF ABdf|a2 bb agff|g2 fg efdB|AFGE D3 :|

